src/symbolic/apps/preferences-system-details-symbolic.svg

<?xml version="1.0" encoding="UTF-8" standalone="no"?>
<svg
   xmlns:dc="http://purl.org/dc/elements/1.1/"
   xmlns:cc="http://creativecommons.org/ns#"
   xmlns:rdf="http://www.w3.org/1999/02/22-rdf-syntax-ns#"
   xmlns:svg="http://www.w3.org/2000/svg"
   xmlns="http://www.w3.org/2000/svg"
   xmlns:sodipodi="http://sodipodi.sourceforge.net/DTD/sodipodi-0.dtd"
   xmlns:inkscape="http://www.inkscape.org/namespaces/inkscape"
   width="16"
   height="16"
   version="1.1"
   id="svg4"
   sodipodi:docname="preferences-system-details-symbolic.svg"
   inkscape:version="0.92.4 (5da689c313, 2019-01-14)">
  <metadata
     id="metadata10">
    <rdf:RDF>
      <cc:Work
         rdf:about="">
        <dc:format>image/svg+xml</dc:format>
        <dc:type
           rdf:resource="http://purl.org/dc/dcmitype/StillImage" />
      </cc:Work>
    </rdf:RDF>
  </metadata>
  <defs
     id="defs8" />
  <sodipodi:namedview
     pagecolor="#ffffff"
     bordercolor="#666666"
     borderopacity="1"
     objecttolerance="10"
     gridtolerance="10"
     guidetolerance="10"
     inkscape:pageopacity="0"
     inkscape:pageshadow="2"
     inkscape:window-width="1366"
     inkscape:window-height="708"
     id="namedview6"
     showgrid="true"
     inkscape:zoom="3.6875"
     inkscape:cx="-68.244784"
     inkscape:cy="10.19742"
     inkscape:window-x="0"
     inkscape:window-y="30"
     inkscape:window-maximized="1"
     inkscape:current-layer="svg4">
    <inkscape:grid
       type="xygrid"
       id="grid817" />
  </sodipodi:namedview>
  <path
     d="M 7,4 H 9 V 6 H 7 Z m 0,3 h 2 v 5 H 7 Z"
     style="color:#bebebe;overflow:visible;fill:#666666;marker:none;fill-opacity:1"
     overflow="visible"
     id="path2"
     inkscape:connector-curvature="0"
     sodipodi:nodetypes="cccccccccc" />
  <path
     style="opacity:1;fill:#666666;fill-opacity:1;stroke:none;stroke-width:2;stroke-linecap:round;stroke-linejoin:miter;stroke-miterlimit:4;stroke-dasharray:none;stroke-opacity:1;paint-order:markers stroke fill"
     d="M 2.0019531 1 C 1.4470834 1 1 1.446 1 2 L 1 14 C 1 14.554 1.4470834 15 2.0019531 15 L 13.998047 15 C 14.552917 15 15 14.554 15 14 L 15 2 C 15 1.446 14.552917 1 13.998047 1 L 2.0019531 1 z M 2 2 L 14 2 L 14 14 L 2 14 L 2 2 z "
     id="rect814" />
</svg>

<svg xmlns="http://www.w3.org/2000/svg" width="16" height="16"><path d="M7 4h2v2H7zm0 3h2v5H7z" style="marker:none" overflow="visible" color="#5d656b" fill="#5d656b"/><path d="M2.002 1A.999.999 0 0 0 1 2v12c0 .554.447 1 1.002 1h11.996A.999.999 0 0 0 15 14V2c0-.554-.447-1-1.002-1H2.002zM2 2h12v12H2V2z" fill="#5d656b" paint-order="markers stroke fill"/></svg>
